templates/main/source/images/work-3.svg

<?xml version="1.0" encoding="utf-8"?>
<svg width="24px" height="24px" viewBox="0 0 24 24" version="1.1" xmlns:xlink="http://www.w3.org/1999/xlink" xmlns="http://www.w3.org/2000/svg">
  <desc>Created with Lunacy</desc>
  <g id="quality">
    <path d="M23.25 0L0.75 0C0.336 0 0 0.336 0 0.75L0 17.25C0 17.664 0.336 18 0.75 18L10.5 18L10.5 16.5L1.5 16.5L1.5 1.5L22.5 1.5L22.5 16.5L21 16.5L21 18L23.25 18C23.664 18 24 17.664 24 17.25L24 0.75C24 0.336 23.664 0 23.25 0" transform="translate(0 1.0000094)" id="Fill-1" fill="#8C0014" stroke="none" />
    <path d="M0 4.5C0 2.01825 2.01825 0 4.5 0C6.98175 0 9 2.01825 9 4.5C9 5.4172 8.72325 6.27 8.25 6.9825L8.25 14.2485C8.25 14.5327 8.0895 14.7922 7.83525 14.9198C7.7295 14.9722 7.614 14.9985 7.5 14.9985C7.341 14.9985 7.18275 14.9475 7.05 14.8485L4.5 12.936L1.95 14.8485C1.722 15.018 1.41825 15.0465 1.16475 14.9198C0.9105 14.7922 0.75 14.5327 0.75 14.2485L0.75 6.9825C0.27675 6.27 0 5.4172 0 4.5ZM4.5 7.5C2.8455 7.5 1.5 6.1545 1.5 4.5C1.5 2.8455 2.8455 1.5 4.5 1.5C6.1545 1.5 7.5 2.8455 7.5 4.5C7.5 6.1545 6.1545 7.5 4.5 7.5ZM6.75 12.7485L4.95 11.3985C4.68375 11.1982 4.31625 11.1982 4.05 11.3985L2.25 12.7485L2.25 8.391C2.913 8.77575 3.68025 9 4.5 9C5.31975 9 6.087 8.77575 6.75 8.391L6.75 12.7485Z" transform="translate(11.25 8.501519)" id="Fill-3" fill="#8C0014" fill-rule="evenodd" stroke="none" />
    <path d="M0 1.5L6 1.5L6 0L0 0L0 1.5Z" transform="translate(3 4)" id="Fill-6" fill="#A6A6A6" stroke="none" />
    <path d="M0 1.5L1.5 1.5L1.5 0L0 0L0 1.5Z" transform="translate(3 7)" id="Fill-8" fill="#A6A6A6" stroke="none" />
    <path d="M0 1.5L1.5 1.5L1.5 0L0 0L0 1.5Z" transform="translate(6 7)" id="Fill-9" fill="#A6A6A6" stroke="none" />
    <path d="M0 1.5L6 1.5L6 0L0 0L0 1.5Z" transform="translate(3 10.75)" id="Fill-10" fill="#A6A6A6" stroke="none" />
    <path d="M0 1.5L6 1.5L6 0L0 0L0 1.5Z" transform="translate(3 13.75)" id="Fill-11" fill="#A6A6A6" stroke="none" />
    <path d="M0 1.5L1.5 1.5L1.5 0L0 0L0 1.5Z" transform="translate(19.5 4)" id="Fill-12" fill="#A6A6A6" stroke="none" />
    <path d="M0 1.5L1.5 1.5L1.5 0L0 0L0 1.5Z" transform="translate(16.5 4)" id="Fill-13" fill="#A6A6A6" stroke="none" />
  </g>
</svg>

<svg width="24" height="24" viewBox="0 0 24 24" xmlns:xlink="http://www.w3.org/1999/xlink" xmlns="http://www.w3.org/2000/svg"><g id="quality" stroke="none"><path d="M23.25 0H.75A.75.75 0 000 .75v16.5c0 .414.336.75.75.75h9.75v-1.5h-9v-15h21v15H21V18h2.25a.75.75 0 00.75-.75V.75a.75.75 0 00-.75-.75" transform="translate(0 1)" id="Fill-1" fill="#8C0014"/><path d="M0 4.5C0 2.018 2.018 0 4.5 0S9 2.018 9 4.5c0 .917-.277 1.77-.75 2.482v7.266a.751.751 0 01-1.2.6L4.5 12.936l-2.55 1.912a.751.751 0 01-1.2-.6V6.984A4.471 4.471 0 010 4.5zm4.5 3c-1.655 0-3-1.346-3-3 0-1.655 1.345-3 3-3 1.654 0 3 1.345 3 3 0 1.654-1.346 3-3 3zm2.25 5.248l-1.8-1.35a.75.75 0 00-.9 0l-1.8 1.35V8.392a4.468 4.468 0 004.5 0v4.357z" transform="translate(11.25 8.502)" id="Fill-3" fill="#8C0014" fill-rule="evenodd"/><path d="M0 1.5h6V0H0v1.5z" transform="translate(3 4)" id="Fill-6" fill="#A6A6A6"/><path d="M0 1.5h1.5V0H0v1.5z" transform="translate(3 7)" id="Fill-8" fill="#A6A6A6"/><path d="M0 1.5h1.5V0H0v1.5z" transform="translate(6 7)" id="Fill-9" fill="#A6A6A6"/><path d="M0 1.5h6V0H0v1.5z" transform="translate(3 10.75)" id="Fill-10" fill="#A6A6A6"/><path d="M0 1.5h6V0H0v1.5z" transform="translate(3 13.75)" id="Fill-11" fill="#A6A6A6"/><path d="M0 1.5h1.5V0H0v1.5z" transform="translate(19.5 4)" id="Fill-12" fill="#A6A6A6"/><path d="M0 1.5h1.5V0H0v1.5z" transform="translate(16.5 4)" id="Fill-13" fill="#A6A6A6"/></g></svg>
